X:25
T:Col. Byng's Favorite
M:4/4
R:Reel
K:D
d|"D"d/c/B/A/ d>A F<D D>F |"Em" G>E e>d "A"c<A A>d |"D" d/c/B/A/ d>A F<D D>F |"Em" G>E "A"A>F "A"D2D:|
G|\
"D"F>D A>DF>D D>F|"Em" G>EB>E "A"G<E E>G|"D"F>DA>D F<D D>F|"Em"G>D "A"A>F "D"D2 DG|
"D"F>D A>DF>D D>F|"Em" G>EB>E "A"G<E E>G|"D"F>DA>D "G"B>G"D"A>F|"Em"G>E "A"A>F "D"D2 D|]
